X: 1
T: March Of The Men Of Devon
R: March
Z: JH via thesession.org
M: 2/4
L: 1/8
K: Dmaj
r:32
A3/2G/|FD DD|DF Ad|cA AA|Ac eg|
fd dc|Bg gf|e/f/e/d/ c/d/c/B/|AG FE|
FD DD|DF Ad|cA AA|Ac eg|
fd dc|Bg ec|d2 d3/c/|d2 fg|
af fd|fd fa|ge ec|ec eg|
fd dc|Bg gf|e/f/e/d/ c/d/c/B/|AG FE|
FD DD|DF Ad|cA AA|Ac eg|
fd dc|Bg ec|d2 d3/c/|d2||
